svgs/light/wand-magic.svg

<svg xmlns="http://www.w3.org/2000/svg" viewBox="0 0 512 512"><!--! Font Awesome Pro 6.3.0 by @fontawesome - https://fontawesome.com License - https://fontawesome.com/license (Commercial License) Copyright 2023 Fonticons, Inc. --><path d="M12.28 403.7L403.7 12.28C419.3-3.337 444.7-3.337 460.3 12.28L499.7 51.72C515.3 67.34 515.3 92.66 499.7 108.3L108.3 499.7C92.66 515.3 67.34 515.3 51.72 499.7L12.28 460.3C-3.337 444.7-3.337 419.3 12.28 403.7V403.7zM356.7 206.1L477.1 85.66C480.2 82.53 480.2 77.47 477.1 74.34L437.7 34.91C434.5 31.79 429.5 31.79 426.3 34.91L305.9 155.3L356.7 206.1zM283.3 177.9L34.91 426.3C31.79 429.5 31.79 434.5 34.91 437.7L74.34 477.1C77.47 480.2 82.53 480.2 85.66 477.1L334.1 228.7L283.3 177.9z"/></svg>

<svg xmlns="http://www.w3.org/2000/svg" viewBox="0 0 512 512"><!--! Font Awesome Pro 6.4.0 by @fontawesome - https://fontawesome.com License - https://fontawesome.com/license (Commercial License) Copyright 2023 Fonticons, Inc. --><path d="M305.9 155.3l50.7 50.7L477.1 85.7c3.1-3.1 3.1-8.2 0-11.3L437.7 34.9c-3.1-3.1-8.2-3.1-11.3 0L305.9 155.3zm-22.6 22.6L34.9 426.3c-3.1 3.1-3.1 8.2 0 11.3l39.4 39.4c3.1 3.1 8.2 3.1 11.3 0L334.1 228.7l-50.7-50.7zM12.3 403.7L403.7 12.3c15.6-15.6 40.9-15.6 56.6 0l39.4 39.4c15.6 15.6 15.6 40.9 0 56.6L108.3 499.7c-15.6 15.6-40.9 15.6-56.6 0L12.3 460.3c-15.6-15.6-15.6-40.9 0-56.6z"/></svg>
